polaris-icons/icons/new-icons/MobileBackArrowMajor.svg

<svg width="20" height="20" viewBox="0 0 20 20" fill="none" xmlns="http://www.w3.org/2000/svg">
<path fill-rule="evenodd" clip-rule="evenodd" d="M16.5 10C16.5 10.4142 16.1642 10.75 15.75 10.75L6.06039 10.75L8.7803 13.4696C9.07321 13.7625 9.07324 14.2374 8.78036 14.5303C8.48748 14.8232 8.0126 14.8232 7.7197 14.5304L3.7193 10.5304C3.57863 10.3897 3.4996 10.1989 3.4996 10C3.4996 9.80107 3.57863 9.6103 3.7193 9.46964L7.7197 5.46964C8.0126 5.17676 8.48748 5.17679 8.78036 5.4697C9.07324 5.7626 9.07321 6.23748 8.7803 6.53036L6.06039 9.25L15.75 9.25C16.1642 9.25 16.5 9.58579 16.5 10Z" fill="#4A4A4A"/>
</svg>

<svg viewBox="0 0 20 20" xmlns="http://www.w3.org/2000/svg"><path fill-rule="evenodd" d="M16.5 10a.75.75 0 0 1-.75.75h-9.69l2.72 2.72a.75.75 0 0 1-1.06 1.06l-4-4a.75.75 0 0 1 0-1.06l4-4a.75.75 0 1 1 1.06 1.06l-2.72 2.72h9.69a.75.75 0 0 1 .75.75Z" fill="#5C5F62"/></svg>
